X: 318
T: Peekaboo Waltz
M:3/4
R:waltz
L:1/8
Z:Alf Warnock - alf0@rogers.com
K:D
FG|:"D"A2 f2 e2| "G"d2 c2 "F""dim"B2| "D"A2 F2 B2| A4 FG|\
"D"A2 f2 e2| "G"d2 c2 "F""dim"d2| "A7"e4 ef|"A7"e4 FG|
"D"A2 f2 e2| "G"d2 c2 "F""dim"B2| "D"A2 F2 B2| A4 A2|\
"G"B2 g2 f2| "A7"e2 B2 c2| "D"d2 f2 e2| d4 FG:|
"D"A4 f2| A4 A2| "G"B4 g2| B4 B2|\
"A7"c4 c2| "Fdim"B2 c2 B2| "D"A2 F2 B2| A4 FG|
"D"A4 f2| A4 A2| "G"B4 g2| "E7"B4 B2|\
"A7"c2 B2 A2| g2 f2 e2O| "D"d3c de|d4 FG:|
O|d2A2F2|D6|]
%%text Harmony - Eric Dunn
DE|F2 A2 A2|G4 =F2|F2 D2 G2|F4 DE|\
F2 A2 A2|B2 A2 ^G2|G4 G2|G4 DE|
F2 A2 A2|G4 =F2|F2 D2 G2|F4 F2|\
G2 B2 A2|G2 E2 G2|F4 G2|F4 DE:|
F4 D2|F4 F2|D4 G2|G4 G2|\
A4 A2|=F2 ^G2 =F2|^F4 F2|F4 A,2|
F4 F2|F4 F2|G4 G2|^G4 G2|\
=G2 G2 E2|A2 B2 c2O|F3E AG|F4 DE:|
O|D2G2E2|F6|]
